public/4.svg

<svg width="102" height="83" viewBox="0 0 102 83" fill="none" xmlns="http://www.w3.org/2000/svg">
<path d="M95.9004 45.6092C95.6195 45.609 95.3435 45.5348 95.1003 45.3941L54.6204 21.3941C54.3765 21.2533 54.174 21.0507 54.0336 20.8066C53.8931 20.5625 53.8196 20.2858 53.8203 20.0042V6.95715C53.8204 6.67537 53.8946 6.39857 54.0355 6.15454C54.1764 5.91052 54.3791 5.70787 54.6231 5.56693C54.867 5.42598 55.1438 5.3517 55.4255 5.35156C55.7073 5.35143 55.9843 5.42545 56.2284 5.56616L96.7084 29.5661C96.952 29.7075 97.1541 29.9104 97.2946 30.1546C97.435 30.3987 97.5086 30.6755 97.5083 30.9572V44.0052C97.5083 44.4311 97.3392 44.8396 97.038 45.1408C96.7368 45.442 96.3283 45.6112 95.9024 45.6112L95.9004 45.6092ZM57.0254 19.0782L94.2943 41.2232V31.8781L57.0254 9.73315V19.0782Z" fill="#005BEA"/>
<path d="M100.3 70.6384C100.02 70.6379 99.7436 70.5637 99.5004 70.4233L54.6204 44.5114C54.3769 44.3701 54.1748 44.1674 54.0344 43.9234C53.894 43.6794 53.8202 43.4028 53.8203 43.1213V30.0734C53.8206 29.7917 53.8949 29.515 54.0359 29.2711C54.1769 29.0272 54.3794 28.8247 54.6234 28.6839C54.8674 28.5431 55.1442 28.4688 55.4259 28.4688C55.7076 28.4687 55.9843 28.5427 56.2284 28.6833L101.108 54.5944C101.352 54.7352 101.555 54.9378 101.695 55.1819C101.836 55.4259 101.909 55.7028 101.908 55.9844V69.0323C101.908 69.2433 101.867 69.4522 101.786 69.6471C101.706 69.842 101.587 70.0191 101.438 70.1683C101.289 70.3174 101.112 70.4357 100.917 70.5164C100.722 70.597 100.513 70.6385 100.302 70.6384H100.3ZM57.0254 42.1993L98.6943 66.2563V56.9164L57.0254 32.8594V42.1993Z" fill="#005BEA"/>
<path d="M70.6113 76.9106C70.3304 76.9104 70.0544 76.8363 69.8113 76.6956L54.6204 67.6266C54.3769 67.4853 54.1748 67.2825 54.0344 67.0386C53.894 66.7946 53.8202 66.518 53.8203 66.2366V53.1866C53.8206 52.9049 53.8949 52.6282 54.0359 52.3843C54.1769 52.1405 54.3794 51.9379 54.6234 51.7971C54.8674 51.6563 55.1441 51.5821 55.4258 51.582C55.7075 51.5819 55.9843 51.6559 56.2284 51.7966L71.4193 60.8666C71.6628 61.0078 71.8648 61.2106 72.0052 61.4546C72.1457 61.6985 72.2195 61.9751 72.2194 62.2566V75.3046C72.2194 75.7305 72.0501 76.139 71.7489 76.4402C71.4477 76.7414 71.0392 76.9106 70.6133 76.9106H70.6113ZM57.0264 65.3106L69.0054 72.5256V63.1856L57.0264 55.9696V65.3106Z" fill="#005BEA"/>
<path d="M19.0375 50.8906C19.3184 50.8908 19.5942 50.965 19.8374 51.1056L47.2825 66.9506C47.5263 67.0914 47.7287 67.2941 47.8691 67.5381C48.0096 67.7822 48.0832 68.059 48.0824 68.3406V81.3886C48.0821 81.6703 48.0079 81.947 47.8669 82.1909C47.726 82.4347 47.5233 82.6372 47.2793 82.7781C47.0353 82.9189 46.7586 82.9931 46.4769 82.9932C46.1952 82.9933 45.9185 82.9193 45.6744 82.7786L18.2374 66.9356C17.994 66.7943 17.792 66.5915 17.6516 66.3475C17.5112 66.1036 17.4374 65.8271 17.4375 65.5456V52.4966C17.4375 52.0707 17.6067 51.6622 17.9078 51.361C18.209 51.0598 18.6175 50.8906 19.0435 50.8906H19.0375ZM44.8774 69.2686L20.6434 55.2776V64.6176L44.8774 78.6086V69.2686Z" fill="#1B69FF"/>
<path d="M1.60218 17.7109C1.8831 17.7111 2.15894 17.7853 2.40211 17.9259L47.2821 43.838C47.5256 43.9792 47.7276 44.1819 47.868 44.4259C48.0085 44.6699 48.0823 44.9464 48.0822 45.2279V58.2759C48.0819 58.5576 48.0075 58.8343 47.8666 59.0782C47.7256 59.3221 47.523 59.5246 47.2791 59.6654C47.0351 59.8062 46.7584 59.8804 46.4767 59.8805C46.195 59.8806 45.9183 59.8066 45.6742 59.666L0.794198 33.7549C0.550179 33.6141 0.347639 33.4112 0.207162 33.167C0.0666858 32.9227 -0.00679331 32.6457 -0.00585041 32.364V19.317C-0.00585041 18.891 0.163303 18.4825 0.464487 18.1813C0.76567 17.8802 1.17417 17.7109 1.60011 17.7109H1.60218ZM44.8772 46.1549L3.20814 22.098V31.4379L44.8772 55.4949V46.1549Z" fill="#1B69FF"/>
<path d="M10.9652 0C11.2461 0.000194758 11.522 0.0743736 11.7651 0.215027L47.2822 20.715C47.5258 20.8564 47.728 21.0593 47.8684 21.3035C48.0088 21.5476 48.0825 21.8244 48.0822 22.106V35.155C48.0819 35.4367 48.0075 35.7134 47.8666 35.9573C47.7256 36.2012 47.523 36.4037 47.2791 36.5445C47.0351 36.6853 46.7584 36.7595 46.4767 36.7596C46.195 36.7597 45.9183 36.6857 45.6742 36.545L10.1652 16.045C9.92162 15.9036 9.71951 15.7007 9.5791 15.4565C9.4387 15.2124 9.365 14.9357 9.36523 14.6541V1.60602C9.36523 1.18008 9.53439 0.771581 9.83557 0.470398C10.1368 0.169215 10.5453 0 10.9712 0H10.9652ZM44.8801 23.038L12.5742 4.38702V13.7271L44.8801 32.379V23.038Z" fill="#1B69FF"/>
</svg>

<svg xmlns="http://www.w3.org/2000/svg" width="102" height="83" fill="none" viewBox="0 0 102 83"><path fill="#005bea" d="M95.9 45.61a1.6 1.6 0 0 1-.8-.216l-40.48-24a1.6 1.6 0 0 1-.8-1.39V6.957a1.606 1.606 0 0 1 2.408-1.39l40.48 24a1.61 1.61 0 0 1 .8 1.39v13.048a1.606 1.606 0 0 1-1.606 1.606zM57.025 19.077l37.27 22.145v-9.345L57.024 9.733zM100.3 70.638c-.28 0-.556-.074-.8-.215L54.62 44.511a1.6 1.6 0 0 1-.8-1.39V30.073a1.606 1.606 0 0 1 2.408-1.39l44.88 25.911a1.6 1.6 0 0 1 .8 1.39v13.048a1.6 1.6 0 0 1-.991 1.484c-.195.081-.404.122-.615.122zM57.025 42.2l41.67 24.057v-9.34L57.024 32.86zM70.611 76.91a1.6 1.6 0 0 1-.8-.214l-15.19-9.07a1.61 1.61 0 0 1-.8-1.39v-13.05a1.606 1.606 0 0 1 2.407-1.39l15.191 9.07a1.6 1.6 0 0 1 .8 1.39v13.049a1.606 1.606 0 0 1-1.606 1.606zm-13.585-11.6 11.98 7.216v-9.34l-11.98-7.216z"/><path fill="#1b69ff" d="M19.038 50.89c.28 0 .556.075.8.216L47.281 66.95a1.6 1.6 0 0 1 .8 1.39v13.048a1.606 1.606 0 0 1-2.408 1.39L18.237 66.936a1.6 1.6 0 0 1-.8-1.39v-13.05a1.606 1.606 0 0 1 1.607-1.605zm25.84 18.379L20.642 55.278v9.34l24.234 13.99zM1.602 17.71c.281.001.557.075.8.216l44.88 25.912a1.6 1.6 0 0 1 .8 1.39v13.048a1.607 1.607 0 0 1-2.408 1.39L.794 33.755a1.6 1.6 0 0 1-.8-1.391V19.317A1.606 1.606 0 0 1 1.6 17.711zm43.275 28.445L3.208 22.098v9.34l41.67 24.057zM10.965 0c.281 0 .557.074.8.215l35.517 20.5a1.6 1.6 0 0 1 .8 1.391v13.049a1.607 1.607 0 0 1-2.408 1.39l-35.509-20.5a1.6 1.6 0 0 1-.8-1.39V1.605A1.606 1.606 0 0 1 10.971 0zM44.88 23.038 12.574 4.387v9.34L44.88 32.38z"/></svg>
